Assets/Icons/peanut.svg

<svg version="1.2" xmlns="http://www.w3.org/2000/svg" viewBox="0 0 24 24" width="24" height="24"><style></style><path  d="m22.9 2.7c-0.1-1.3-0.3-1.7-0.5-1.9-0.2-0.3-0.8-0.8-1.3-0.8q0 0-0.1 0-0.4 0.1-0.8 0.5-0.4-0.1-0.7-0.2-0.3-0.1-0.6-0.2-0.3 0-0.7-0.1-0.3 0-0.6 0c-2.1 0-4.1 0.9-5.7 2.4-1 1.1-1.5 2.1-1.9 3-0.4 0.9-0.7 1.6-1.4 2.3-0.9 0.7-1.8 0.9-2.7 1.1-1.2 0.3-2.4 0.5-3.7 1.8-1.4 1.4-2.2 3.3-2.2 5.4 0 2.1 0.8 4.1 2.4 5.6 1.5 1.6 3.5 2.4 5.6 2.4 2.1 0 4-0.8 5.5-2.2 1.2-1.3 1.5-2.5 1.8-3.6 0.2-0.9 0.5-1.7 1.2-2.6 0.7-0.8 1.4-1.2 2.2-1.6 0.9-0.4 1.9-1 2.9-2 2.6-2.6 3.2-6.6 1.3-9.3zm-1.8 8.8c-1.9 1.9-3.6 1.9-5.1 3.6-1.9 2.1-1 4.1-3 6.1-1.4 1.4-3.2 2-5 2-1.8 0-3.7-0.7-5.1-2.1-2.8-2.8-2.9-7.3-0.1-10 2-2.1 4.1-1 6.3-2.9 1.7-1.5 1.5-3.4 3.4-5.3 1.4-1.4 3.3-2.1 5.1-2.1 1 0 1.9 0.2 2.7 0.6 0.3-0.3 0.6-0.6 0.8-0.6 0.2 0 0.6 0.2 0.7 0.4 0.2 0.3 0.3 1.2 0.4 1.8 1.7 2.4 1.3 6-1.1 8.5zm0.5-10c-0.1-0.4-0.4-0.6-0.5-0.6-0.2 0-0.6 0.6-0.6 0.6l1.1 1c0 0 0.1-0.6 0-1zm-5 0.4c0.5 0 1.8-0.5 1.7-0.6q-0.1-0.1-0.3-0.2c-0.4 0.2-1.1 0.5-1.4 0.5-0.1 0-0.4-0.2-0.6-0.3q-0.1 0-0.1 0 0 0.1 0 0.1-0.1 0-0.1 0 0 0-0.1 0.1c0 0 0.7 0.4 0.9 0.4zm-2.4 2.1c0.3-0.1 1.7-1.5 1.7-1.7q0 0-0.2-0.1c-0.3 0.4-1.2 1.3-1.5 1.4-0.2 0.1-0.9-0.3-1.2-0.5q-0.1 0.1-0.1 0.2c0 0.1 1 0.8 1.3 0.7zm-2.2 2.4c0.2 0 1.6-1.7 1.6-1.8q0-0.1-0.1-0.2c-0.4 0.5-1.3 1.6-1.5 1.6-0.2 0-0.6-0.2-0.8-0.4q0 0.2 0 0.3c0 0.2 0.5 0.5 0.8 0.5zm-1.4 2.2c0.2 0 1.2-1.3 1.2-1.5q0.1 0 0-0.2c-0.3 0.4-1.1 1.3-1.2 1.3-0.2 0.1-0.5-0.1-0.7-0.4q0 0.1 0 0.1 0 0 0 0 0 0 0 0 0 0.1 0 0.1c-0.1 0.2 0.4 0.6 0.7 0.6zm-2.2 1.7c0.2 0 1.3-0.9 1.4-1q0.1-0.1 0-0.3c-0.1 0.1-1.2 1-1.4 1-0.2 0-0.5-0.3-0.6-0.6q0 0.1-0.1 0.1 0 0 0 0 0 0 0 0 0 0 0 0c-0.1 0.2 0.4 0.9 0.7 0.8zm-3 1.3c0.2 0 1.7-0.8 1.9-0.9 0.1-0.1 0.1-0.3 0-0.4q0 0 0 0 0 0 0 0 0 0 0 0 0 0 0 0c-0.2 0.2-1.7 1-1.9 1-0.3-0.1-0.6-0.5-0.7-0.8-0.1 0.2 0.4 1.1 0.7 1.1zm-2.2 1.9c0.2 0 1.4-1.3 1.5-1.5q0-0.1 0-0.3c-0.2 0.3-1.3 1.4-1.5 1.5-0.3 0-0.8-0.5-0.9-0.8q0 0.1-0.1 0.1c-0.1 0.2 0.6 1 1 1zm-0.5 1q0-0.1-0.1-0.3c-0.1 0.4-0.4 1.6-0.6 1.6-0.3 0-0.6-0.4-0.8-0.6q0 0 0 0 0 0 0 0.1 0 0 0 0 0 0 0 0.1c0 0.2 0.5 0.7 0.8 0.7 0.2 0 0.6-1.5 0.7-1.6zm-1.2 3.6c-0.1 0-0.3-1-0.3-1.7 0 0.6 0.2 2 0.4 2 0.2 0 0.2-1.4 0.3-1.5q0-0.1-0.1-0.2c0 0.4-0.1 1.4-0.3 1.4zm1.5 0.3c-0.1 0.3-0.5 1.1-0.7 0.8-0.1-0.1-0.2-0.3-0.2-0.6 0 0.4 0 0.8 0.2 1 0.3 0.3 0.7-0.8 0.8-1q0 0-0.1-0.2zm-0.6-1.9q0 0.2 0 0.2c0.1 0.1 0.8 1.2 1 1.3 0.2 0 1-1.3 0.9-1.5q0 0 0 0 0 0 0 0 0-0.1 0-0.1 0 0 0 0c-0.2 0.4-0.8 1.3-1 1.2-0.1 0-0.7-0.9-0.9-1.1zm4.5-3.2c-0.2 0-0.8-0.7-1.1-1.2q0 0.1-0.1 0.1c0 0.2 1 1.5 1.2 1.4 0.3 0 1.8-1 1.8-1.2q0-0.1-0.1-0.3c-0.2 0.4-1.5 1.2-1.7 1.2zm1.7-2.5q0 0.1 0 0.1c-0.1 0.2 0.6 1.2 0.8 1.2 0.3-0.1 1.7-1.2 1.8-1.5q0-0.1-0.1-0.2c-0.2 0.4-1.4 1.3-1.7 1.3-0.1 0.1-0.6-0.5-0.8-0.9zm2.4-1.9q-0.1 0.1-0.1 0.1c0 0.3 0.7 1.2 0.9 1.1 0.1 0 0.4-0.2 0.7-0.5q0.3-0.3 0.6-0.5c0.2-0.3 0.4-0.5 0.4-0.6q0-0.1-0.1-0.2c-0.3 0.4-1.3 1.4-1.6 1.5-0.2 0-0.6-0.5-0.8-0.9zm2.8-1.4c-0.1 0-0.8-0.5-1-0.9q-0.1 0.1-0.1 0.2c-0.1 0.2 0.9 1.1 1.1 1 0.3 0 1.6-1.5 1.6-1.8q0-0.1 0-0.2c-0.3 0.5-1.3 1.6-1.6 1.7zm2.2-2.5c-0.1 0-0.8-0.5-1.1-0.9q-0.1 0.1-0.1 0.2c-0.1 0.2 1 1.1 1.2 1.1 0.4-0.1 1.8-1.4 1.8-1.7q0-0.1-0.1-0.2c-0.3 0.5-1.4 1.5-1.7 1.5zm1.4-2.8q-0.1 0.1-0.1 0.1c-0.1 0.2 0.9 1.1 1.1 1.1 0.3-0.1 1.6-1.2 1.7-1.4q0-0.1-0.1-0.2c-0.3 0.4-1.3 1.2-1.6 1.2-0.1 0-0.7-0.5-1-0.8zm-12.7 13.2c-0.3-0.1-0.9-0.9-1.1-1.3q-0.1 0.1-0.1 0.2c0 0.2 0.9 1.4 1.3 1.4 0.2 0.1 1.5-1.2 1.5-1.6q0-0.1-0.1-0.2c-0.2 0.5-1.3 1.5-1.5 1.5zm18.3-8.8c0 0.5-0.2 1.1-0.4 1.3-0.1 0.1-0.4-0.4-0.4-0.7q-0.1 0-0.1 0.1 0 0 0 0 0 0 0 0.1 0 0 0 0c0 0.3 0.4 0.9 0.5 0.9 0.3-0.3 0.4-1.1 0.4-1.7zm-2.2 4.2c-0.1 0-0.6-0.6-0.7-1q0 0 0 0 0 0 0 0 0 0 0 0 0 0 0 0c-0.1 0.3 0.5 1.4 0.7 1.3 0.2-0.1 1.2-1.2 1.3-1.8q0-0.1 0-0.3c-0.1 0.6-1.1 1.7-1.3 1.8zm-2.6 1.7c-0.2-0.1-0.4-0.3-0.5-0.6q0 0.1 0 0.1c0 0.3 0.2 0.8 0.5 0.8 0.2 0.1 1.8-0.7 1.9-0.9q0.1-0.1 0-0.3c-0.2 0.2-1.7 1-1.9 0.9zm-2.1 1.3c-0.2 0-0.5-0.2-0.6-0.5q-0.1 0.1-0.1 0.1c0 0.3 0.4 0.8 0.7 0.7 0.1 0 1.3-0.7 1.4-0.9q0.1-0.1 0-0.3c-0.2 0.2-1.3 0.9-1.4 0.9zm-1.6 2.2c-0.1 0.1-0.6-0.3-0.8-0.5q0 0 0 0.1c0 0.3 0.7 0.8 0.8 0.7 0.2-0.1 1-1.5 1-1.7q0 0 0 0 0 0-0.1 0 0-0.1 0-0.1 0 0 0 0c-0.2 0.4-0.7 1.4-0.9 1.5zm-0.2 1c-0.2 0.6-0.6 1.8-0.7 1.9-0.2 0.2-0.9-0.2-1.1-0.5q-0.1 0.1-0.1 0.2c0.1 0.4 1 0.8 1.2 0.7 0.1-0.2 0.8-2 0.7-2.2q0 0 0 0 0 0 0 0 0 0 0-0.1 0 0 0 0zm-2.8 4.4c-0.2 0.1-0.7-0.3-0.9-0.7q0 0 0 0-0.1 0-0.1 0.1 0 0 0 0 0 0 0 0c0 0.4 0.8 1.1 1 0.9 0.3-0.1 1.7-1.3 1.6-1.5q0-0.1 0-0.1 0 0 0 0 0 0 0-0.1 0 0-0.1 0c-0.2 0.4-1.3 1.3-1.5 1.4zm-2.9 1c-0.1 0-0.5-0.2-0.6-0.5q-0.1 0.1-0.1 0.1c0 0.3 0.5 0.8 0.7 0.8 0.3 0 2.1-0.5 2.1-0.6q-0.1-0.1-0.2-0.3c-0.4 0.2-1.6 0.5-1.9 0.5zm-2.7-0.1c-0.2 0-0.3 0.1-0.3 0.1 0 0.3 2.3 0.5 2.3 0.4q-0.1-0.1-0.2-0.3c-0.4 0-1.3-0.1-1.8-0.2zm0.6-0.6q0-0.1-0.2-0.3c-0.3 0.2-1.4 0.3-1.8 0-0.1 0.1-0.2 0.2-0.1 0.3 0.4 0.4 2.1 0.2 2.1 0zm0.8-0.1c0.2 0 1.7-0.4 1.7-0.8q0 0-0.1-0.1c-0.3 0.3-1.5 0.6-1.7 0.5 0 0-0.8-0.5-1.1-0.8q-0.1 0.2-0.1 0.2c0.1 0.2 1.2 0.9 1.3 1zm5.7-5.3q0 0-0.1-0.2c-0.2 0.5-1 1.8-1.1 1.8-0.2 0.1-1.1-0.6-1.4-0.9q0 0 0 0 0 0 0 0 0 0.1 0 0.1 0 0 0 0c-0.1 0.2 1.2 1.2 1.4 1.2 0.1-0.1 1.1-1.8 1.2-2zm0.1-0.8c0.2-0.1 1.2-1.6 1.2-1.7q0-0.1-0.1-0.3c-0.2 0.4-1 1.6-1.1 1.6-0.2 0.1-0.8-0.4-1.1-0.7q0 0 0 0.1 0 0 0 0 0 0 0 0 0 0.1 0 0.1c-0.1 0.2 0.9 0.9 1.1 0.9zm3.5-3.7q0-0.1-0.1-0.3c-0.3 0.3-1.4 1.2-1.5 1.2-0.2 0.1-0.8-0.4-1-0.6q-0.1 0.1-0.1 0.1c0 0.2 0.8 0.9 1.1 0.9 0.1 0 1.5-1.2 1.6-1.3zm0.7-0.4c0.1-0.1 1.8-1.3 1.8-1.4q0-0.1-0.1-0.3c-0.3 0.3-1.6 1.3-1.7 1.3-0.2 0-0.8-0.6-1-0.9q-0.1 0-0.1 0.1c0 0.2 0.8 1.2 1.1 1.2zm2.5-2.1c0.1-0.1 1.5-1.6 1.6-1.7q0-0.1-0.1-0.3c-0.3 0.4-1.4 1.6-1.5 1.6-0.2 0-0.9-0.7-1.1-1.1q0 0.1 0 0.1 0 0 0 0 0 0 0 0.1 0 0 0 0c-0.1 0.2 0.8 1.3 1.1 1.3zm1-3.8q-0.1 0.1-0.1 0.1c-0.1 0.2 0.8 1.2 1 1.2 0.2-0.1 0.9-1.6 1-1.7q0-0.1-0.1-0.4c-0.1 0.3-0.7 1.7-0.9 1.7-0.2 0-0.7-0.6-0.9-0.9zm-9.3 13.3q0 0-0.1-0.1c-0.3 0.5-1.4 1.4-1.7 1.4-0.2 0-1.1-0.6-1.4-1q0 0.1 0 0.1c0.1 0.4 1.2 1.3 1.5 1.3 0.3 0 1.7-1.3 1.7-1.7zm-6.7 1.6q0-0.1-0.1-0.2c-0.2 0.3-0.8 0.6-1 0.6-0.1 0-0.7-0.6-0.8-0.8q-0.1 0.2 0 0.3c0 0.1 0.7 0.8 0.8 0.8 0.2 0.1 1.2-0.5 1.1-0.7zm0.5-0.3c0.4 0.1 1.4-0.8 1.4-1.2q0 0 0 0 0 0 0-0.1 0 0-0.1 0 0 0 0 0c-0.2 0.4-1 1-1.3 1-0.1 0-1.2-1.1-1.4-1.4q-0.1 0.2 0 0.3c0 0.1 1.3 1.4 1.4 1.4zm5.5-5.4q0 0 0-0.1 0 0 0 0 0 0 0 0 0 0 0 0c-0.2 0.5-0.9 1.4-1.3 1.4-0.4 0-1.6-1.1-1.9-1.7q0 0.1 0 0.2c0 0.5 1.4 1.9 1.9 1.9 0.5 0 1.4-1.5 1.3-1.7zm1.9-2.4q0-0.1 0-0.2c-0.3 0.5-1 1.4-1.4 1.5-0.3 0-1-0.7-1.2-1.1q0 0 0 0 0 0 0 0 0 0.1 0 0.1-0.1 0-0.1 0c0 0.4 1 1.4 1.3 1.3 0.5-0.1 1.5-1.4 1.4-1.6zm0.8-0.5c0.5-0.1 1.6-1.7 1.6-1.9q0 0-0.1-0.1c-0.2 0.5-1.1 1.5-1.5 1.6-0.4 0.1-1.1-0.6-1.3-1q0 0 0 0.1c-0.1 0.4 0.9 1.4 1.3 1.3zm3.9-3.8q0-0.1 0-0.3c-0.3 0.6-1.5 1.6-1.8 1.6-0.2 0-0.9-0.8-1.2-1.1q0 0.1 0 0.2c0 0.2 1 1.2 1.2 1.2 0.3 0 1.7-1.2 1.8-1.6zm2.4-2.4q0-0.1 0-0.1-0.1 0-0.1 0 0-0.1 0-0.1 0 0 0 0c-0.2 0.5-1.3 1.8-1.7 1.7-0.1 0-1.1-1-1.4-1.4q-0.1 0.1-0.1 0.2c0 0.2 1.4 1.6 1.5 1.6 0.4 0 1.7-1.4 1.8-1.9zm-0.8-1.9q-0.1 0.2-0.1 0.2c0 0.1 1 1.2 1.1 1.1 0.3 0 1.5-1.2 1.5-1.6q0-0.1 0-0.2c-0.2 0.4-1.2 1.5-1.5 1.5-0.1 0-0.7-0.7-1-1zm-11.5 14.5c-0.4 0-1.7-1.4-2-2q-0.1 0.2-0.1 0.2c0.1 0.4 1.7 2.1 2.1 2.1 0.4 0 1.5-1.1 1.5-1.6q-0.1 0-0.1 0 0 0 0 0 0 0 0-0.1 0 0 0 0c-0.2 0.5-1.1 1.4-1.4 1.4z"/></svg>

<svg version="1.2" xmlns="http://www.w3.org/2000/svg" viewBox="0 0 24 24" width="24" height="24"><style></style><path d="M 22.9,2.7 C 22.8,1.4 22.6,1 22.4,0.8 22.2,0.5 21.6,0 21.1,0 H 21 C 20.733333,0.06666667 20.466667,0.23333333 20.2,0.5 19.94678,0.39299223 19.724857,0.30341154 19.520171,0.25293539 L 18.9,0.1 C 19.204264,0.14610151 18.483188,0.02536247 18.2,0 H 17.6 C 15.5,0 13.5,0.9 11.9,2.4 10.9,3.5 10.4,4.5 10,5.4 9.6,6.3 9.3,7 8.6,7.7 7.7,8.4 6.8,8.6 5.9,8.8 4.7,9.1 3.5,9.3 2.2,10.6 0.8,12 0,13.9 0,16 c 0,2.1 0.8,4.1 2.4,5.6 1.5,1.6 3.5,2.4 5.6,2.4 2.1,0 4,-0.8 5.5,-2.2 1.2,-1.3 1.5,-2.5 1.8,-3.6 0.2,-0.9 0.5,-1.7 1.2,-2.6 0.7,-0.8 1.4,-1.2 2.2,-1.6 0.9,-0.4 1.9,-1 2.9,-2 2.6,-2.6 3.2,-6.6 1.3,-9.3 z m -1.8,8.8 c -1.9,1.9 -3.6,1.9 -5.1,3.6 -1.9,2.1 -1,4.1 -3,6.1 -1.4,1.4 -3.2,2 -5,2 -1.8,0 -3.7,-0.7 -5.1,-2.1 -2.8,-2.8 -2.9,-7.3 -0.1,-10 2,-2.1 4.1,-1 6.3,-2.9 1.7,-1.5 1.5,-3.4 3.4,-5.3 1.4,-1.4 3.3,-2.1 5.1,-2.1 1,0 1.9,0.2 2.7,0.6 0.3,-0.3 0.6,-0.6 0.8,-0.6 0.2,0 0.6,0.2 0.7,0.4 0.2,0.3 0.3,1.2 0.4,1.8 1.7,2.4 1.3,6 -1.1,8.5 z m 0.5,-10 C 21.5,1.1 21.2,0.9 21.1,0.9 c -0.2,0 -0.6,0.6 -0.6,0.6 l 1.1,1 c 0,0 0.1,-0.6 0,-1 z m -5,0.4 c 0.5,0 1.8,-0.5 1.7,-0.6 C 18.233333,1.2333333 18.133333,1.1666667 18,1.1 17.6,1.3 16.9,1.6 16.6,1.6 16.5,1.6 16.2,1.4 16,1.3 h -0.1 v 0.1 h -0.1 l -0.1,0.1 c 0,0 0.7,0.4 0.9,0.4 z M 14.2,4 C 14.5,3.9 15.9,2.5 15.9,2.3 L 15.7,2.2 C 15.4,2.6 14.5,3.5 14.2,3.6 14,3.7 13.3,3.3 13,3.1 c -0.06667,0.066667 -0.1,0.1333333 -0.1,0.2 0,0.1 1,0.8 1.3,0.7 z M 12,6.4 c 0.2,0 1.6,-1.7 1.6,-1.8 C 13.6,4.533333 13.56667,4.4666667 13.5,4.4 13.1,4.9 12.2,6 12,6 11.8,6 11.4,5.8 11.2,5.6 v 0.3 c 0,0.2 0.5,0.5 0.8,0.5 z m -1.4,2.2 c 0.2,0 1.2,-1.3 1.2,-1.5 0.06667,0 0.06667,-0.066667 0,-0.2 C 11.5,7.3 10.7,8.2 10.6,8.2 10.4,8.3 10.1,8.1 9.9,7.8 v 0.1 0 0 0.1 c -0.1,0.2 0.4,0.6 0.7,0.6 z m -2.2,1.7 c 0.2,0 1.3,-0.9 1.4,-1 C 9.8666667,9.2333333 9.8666667,9.1333333 9.8,9 9.7,9.1 8.6,10 8.4,10 8.2,10 7.9,9.7 7.8,9.4 7.8,9.466667 7.766667,9.5 7.7,9.5 v 0 0 0 c -0.1,0.2 0.4,0.9 0.7,0.8 z m -3,1.3 c 0.2,0 1.7,-0.8 1.9,-0.9 0.1,-0.1 0.1,-0.3 0,-0.4 v 0 0 0 0 c -0.2,0.2 -1.7,1 -1.9,1 -0.3,-0.1 -0.6,-0.5 -0.7,-0.8 -0.1,0.2 0.4,1.1 0.7,1.1 z m -2.2,1.9 c 0.2,0 1.4,-1.3 1.5,-1.5 v -0.3 c -0.2,0.3 -1.3,1.4 -1.5,1.5 -0.3,0 -0.8,-0.5 -0.9,-0.8 0,0.06667 -0.033333,0.1 -0.1,0.1 -0.1,0.2 0.6,1 1,1 z m -0.5,1 C 2.7,14.43333 2.666667,14.333333 2.6,14.2 2.5,14.6 2.2,15.8 2,15.8 1.7,15.8 1.4,15.4 1.2,15.2 v 0 0.1 0 0.1 c 0,0.2 0.5,0.7 0.8,0.7 0.2,0 0.6,-1.5 0.7,-1.6 z m -1.2,3.6 c -0.1,0 -0.3,-1 -0.3,-1.7 0,0.6 0.2,2 0.4,2 0.2,0 0.2,-1.4 0.3,-1.5 0,-0.06667 -0.033333,-0.133333 -0.1,-0.2 0,0.4 -0.1,1.4 -0.3,1.4 z M 3,18.4 C 2.9,18.7 2.5,19.5 2.3,19.2 2.2,19.1 2.1,18.9 2.1,18.6 c 0,0.4 0,0.8 0.2,1 0.3,0.3 0.7,-0.8 0.8,-1 z M 2.4,16.5 v 0.2 c 0.1,0.1 0.8,1.2 1,1.3 0.2,0 1,-1.3 0.9,-1.5 v 0 0 -0.1 0 c -0.2,0.4 -0.8,1.3 -1,1.2 -0.1,0 -0.7,-0.9 -0.9,-1.1 z m 4.5,-3.2 c -0.2,0 -0.8,-0.7 -1.1,-1.2 0,0.06667 -0.033333,0.1 -0.1,0.1 0,0.2 1,1.5 1.2,1.4 0.3,0 1.8,-1 1.8,-1.2 0,-0.06667 -0.033333,-0.166667 -0.1,-0.3 -0.2,0.4 -1.5,1.2 -1.7,1.2 z m 1.7,-2.5 v 0.1 c -0.1,0.2 0.6,1.2 0.8,1.2 0.3,-0.1 1.7,-1.2 1.8,-1.5 0,-0.06667 -0.03333,-0.133333 -0.1,-0.2 -0.2,0.4 -1.4,1.3 -1.7,1.3 C 9.3,11.8 8.8,11.2 8.6,10.8 Z M 11,8.9 10.9,9 c 0,0.3 0.7,1.2 0.9,1.1 0.1,0 0.4,-0.2 0.7,-0.5 0.2,-0.2 0.4,-0.3666667 0.6,-0.5 0.2,-0.3 0.4,-0.5 0.4,-0.6 0,-0.066667 -0.03333,-0.1333333 -0.1,-0.2 -0.3,0.4 -1.3,1.4 -1.6,1.5 -0.2,0 -0.6,-0.5 -0.8,-0.9 z m 2.8,-1.4 c -0.1,0 -0.8,-0.5 -1,-0.9 -0.06667,0.066667 -0.1,0.1333333 -0.1,0.2 -0.1,0.2 0.9,1.1 1.1,1 0.3,0 1.6,-1.5 1.6,-1.8 V 5.8 C 15.1,6.3 14.1,7.4 13.8,7.5 Z M 16,5 C 15.9,5 15.2,4.5 14.9,4.1 14.833333,4.1666667 14.8,4.2333333 14.8,4.3 14.7,4.5 15.8,5.4 16,5.4 16.4,5.3 17.8,4 17.8,3.7 17.8,3.6333333 17.766667,3.5666667 17.7,3.5 17.4,4 16.3,5 16,5 Z M 17.4,2.2 17.3,2.3 C 17.2,2.5 18.2,3.4 18.4,3.4 18.7,3.3 20,2.2 20.1,2 20.1,1.9333333 20.066667,1.8666667 20,1.8 19.7,2.2 18.7,3 18.4,3 18.3,3 17.7,2.5 17.4,2.2 Z M 4.7,15.4 C 4.4,15.3 3.8,14.5 3.6,14.1 c -0.066667,0.06667 -0.1,0.133333 -0.1,0.2 0,0.2 0.9,1.4 1.3,1.4 C 5,15.8 6.3,14.5 6.3,14.1 6.3,14.03333 6.266667,13.966667 6.2,13.9 6,14.4 4.9,15.4 4.7,15.4 Z M 23,6.6 C 23,7.1 22.8,7.7 22.6,7.9 22.5,8 22.2,7.5 22.2,7.2 c -0.06667,0 -0.1,0.033333 -0.1,0.1 v 0 0.1 0 c 0,0.3 0.4,0.9 0.5,0.9 C 22.9,8 23,7.2 23,6.6 Z m -2.2,4.2 c -0.1,0 -0.6,-0.6 -0.7,-1 v 0 0 0 0 c -0.1,0.3 0.5,1.4 0.7,1.3 C 21,11 22,9.9 22.1,9.3 V 9 C 22,9.6 21,10.7 20.8,10.8 Z m -2.6,1.7 C 18,12.4 17.8,12.2 17.7,11.9 V 12 c 0,0.3 0.2,0.8 0.5,0.8 0.2,0.1 1.8,-0.7 1.9,-0.9 0.06667,-0.06667 0.06667,-0.166667 0,-0.3 -0.2,0.2 -1.7,1 -1.9,0.9 z m -2.1,1.3 c -0.2,0 -0.5,-0.2 -0.6,-0.5 l -0.1,0.1 c 0,0.3 0.4,0.8 0.7,0.7 0.1,0 1.3,-0.7 1.4,-0.9 0.06667,-0.06667 0.06667,-0.166667 0,-0.3 -0.2,0.2 -1.3,0.9 -1.4,0.9 z M 14.5,16 c -0.1,0.1 -0.6,-0.3 -0.8,-0.5 v 0.1 c 0,0.3 0.7,0.8 0.8,0.7 0.2,-0.1 1,-1.5 1,-1.7 v 0 h -0.1 v -0.1 0 c -0.2,0.4 -0.7,1.4 -0.9,1.5 z m -0.2,1 c -0.2,0.6 -0.6,1.8 -0.7,1.9 -0.2,0.2 -0.9,-0.2 -1.1,-0.5 -0.06667,0.06667 -0.1,0.133333 -0.1,0.2 0.1,0.4 1,0.8 1.2,0.7 0.1,-0.2 0.8,-2 0.7,-2.2 v 0 0 z m -2.8,4.4 c -0.2,0.1 -0.7,-0.3 -0.9,-0.7 v 0 c -0.06667,0 -0.1,0.03333 -0.1,0.1 v 0 0 c 0,0.4 0.8,1.1 1,0.9 0.3,-0.1 1.7,-1.3 1.6,-1.5 v -0.1 0 V 20 H 13 c -0.2,0.4 -1.3,1.3 -1.5,1.4 z m -2.9,1 C 8.5,22.4 8.1,22.2 8,21.9 L 7.9,22 c 0,0.3 0.5,0.8 0.7,0.8 0.3,0 2.1,-0.5 2.1,-0.6 -0.06667,-0.06667 -0.133333,-0.166667 -0.2,-0.3 -0.4,0.2 -1.6,0.5 -1.9,0.5 z M 5.9,22.3 c -0.2,0 -0.3,0.1 -0.3,0.1 0,0.3 2.3,0.5 2.3,0.4 C 7.833333,22.73333 7.7666667,22.633333 7.7,22.5 7.3,22.5 6.4,22.4 5.9,22.3 Z m 0.6,-0.6 c 0,-0.06667 -0.066667,-0.166667 -0.2,-0.3 -0.3,0.2 -1.4,0.3 -1.8,0 -0.1,0.1 -0.2,0.2 -0.1,0.3 0.4,0.4 2.1,0.2 2.1,0 z M 7.3,21.6 C 7.5,21.6 9,21.2 9,20.8 L 8.9,20.7 c -0.3,0.3 -1.5,0.6 -1.7,0.5 0,0 -0.8,-0.5 -1.1,-0.8 L 6,20.6 c 0.1,0.2 1.2,0.9 1.3,1 z M 13,16.3 12.9,16.1 c -0.2,0.5 -1,1.8 -1.1,1.8 C 11.6,18 10.7,17.3 10.4,17 v 0 0 0.1 0 c -0.1,0.2 1.2,1.2 1.4,1.2 0.1,-0.1 1.1,-1.8 1.2,-2 z m 0.1,-0.8 c 0.2,-0.1 1.2,-1.6 1.2,-1.7 0,-0.06667 -0.03333,-0.166667 -0.1,-0.3 -0.2,0.4 -1,1.6 -1.1,1.6 -0.2,0.1 -0.8,-0.4 -1.1,-0.7 v 0.1 0 0 0.1 c -0.1,0.2 0.9,0.9 1.1,0.9 z m 3.5,-3.7 c 0,-0.06667 -0.03333,-0.166667 -0.1,-0.3 -0.3,0.3 -1.4,1.2 -1.5,1.2 -0.2,0.1 -0.8,-0.4 -1,-0.6 l -0.1,0.1 c 0,0.2 0.8,0.9 1.1,0.9 0.1,0 1.5,-1.2 1.6,-1.3 z m 0.7,-0.4 C 17.4,11.3 19.1,10.1 19.1,10 19.1,9.933333 19.06667,9.8333333 19,9.7 18.7,10 17.4,11 17.3,11 c -0.2,0 -0.8,-0.6 -1,-0.9 -0.06667,0 -0.1,0.03333 -0.1,0.1 0,0.2 0.8,1.2 1.1,1.2 z M 19.8,9.3 C 19.9,9.2 21.3,7.7 21.4,7.6 21.4,7.533333 21.36667,7.4333333 21.3,7.3 21,7.7 19.9,8.9 19.8,8.9 19.6,8.9 18.9,8.2 18.7,7.8 v 0.1 0 0.1 0 c -0.1,0.2 0.8,1.3 1.1,1.3 z m 1,-3.8 -0.1,0.1 c -0.1,0.2 0.8,1.2 1,1.2 0.2,-0.1 0.9,-1.6 1,-1.7 C 22.7,5.033333 22.66667,4.9 22.6,4.7 22.5,5 21.9,6.4 21.7,6.4 21.5,6.4 21,5.8 20.8,5.5 Z m -9.3,13.3 -0.1,-0.1 c -0.3,0.5 -1.4,1.4 -1.7,1.4 -0.2,0 -1.1,-0.6 -1.4,-1 v 0.1 c 0.1,0.4 1.2,1.3 1.5,1.3 0.3,0 1.7,-1.3 1.7,-1.7 z m -6.7,1.6 c 0,-0.06667 -0.033333,-0.133333 -0.1,-0.2 -0.2,0.3 -0.8,0.6 -1,0.6 -0.1,0 -0.7,-0.6 -0.8,-0.8 -0.066667,0.133333 -0.066667,0.233333 0,0.3 0,0.1 0.7,0.8 0.8,0.8 0.2,0.1 1.2,-0.5 1.1,-0.7 z m 0.5,-0.3 c 0.4,0.1 1.4,-0.8 1.4,-1.2 v 0 -0.1 H 6.6 v 0 c -0.2,0.4 -1,1 -1.3,1 -0.1,0 -1.2,-1.1 -1.4,-1.4 -0.066667,0.133333 -0.066667,0.233333 0,0.3 0,0.1 1.3,1.4 1.4,1.4 z m 5.5,-5.4 v -0.1 0 0 0 C 10.6,15.1 9.9,16 9.5,16 9.1,16 7.9,14.9 7.6,14.3 v 0.2 c 0,0.5 1.4,1.9 1.9,1.9 0.5,0 1.4,-1.5 1.3,-1.7 z m 1.9,-2.4 v -0.2 c -0.3,0.5 -1,1.4 -1.4,1.5 -0.3,0 -1,-0.7 -1.2,-1.1 v 0 0 0.1 H 10 c 0,0.4 1,1.4 1.3,1.3 0.5,-0.1 1.5,-1.4 1.4,-1.6 z m 0.8,-0.5 C 14,11.7 15.1,10.1 15.1,9.9 L 15,9.8 c -0.2,0.5 -1.1,1.5 -1.5,1.6 -0.4,0.1 -1.1,-0.6 -1.3,-1 v 0.1 c -0.1,0.4 0.9,1.4 1.3,1.3 z M 17.4,8 V 7.7 c -0.3,0.6 -1.5,1.6 -1.8,1.6 -0.2,0 -0.9,-0.8 -1.2,-1.1 v 0.2 c 0,0.2 1,1.2 1.2,1.2 0.3,0 1.7,-1.2 1.8,-1.6 z M 19.8,5.6 V 5.5 h -0.1 v -0.1 0 c -0.2,0.5 -1.3,1.8 -1.7,1.7 -0.1,0 -1.1,-1 -1.4,-1.4 -0.06667,0.066667 -0.1,0.1333333 -0.1,0.2 0,0.2 1.4,1.6 1.5,1.6 0.4,0 1.7,-1.4 1.8,-1.9 z M 19,3.7 18.9,3.9 c 0,0.1 1,1.2 1.1,1.1 0.3,0 1.5,-1.2 1.5,-1.6 V 3.2 C 21.3,3.6 20.3,4.7 20,4.7 19.9,4.7 19.3,4 19,3.7 Z M 7.5,18.2 c -0.4,0 -1.7,-1.4 -2,-2 l -0.1,0.2 c 0.1,0.4 1.7,2.1 2.1,2.1 0.4,0 1.5,-1.1 1.5,-1.6 H 8.9 v 0 -0.1 0 c -0.2,0.5 -1.1,1.4 -1.4,1.4 z"/></svg>
